Obsidian/actions/16s/edit-copy-symbolic.svg

<svg height="16" width="16" xmlns="http://www.w3.org/2000/svg"><path d="m6.5 1c-.831 0-1.5.669-1.5 1.5v1c0-.831.669-1.5 1.5-1.5h6c.831 0 1.5.669 1.5 1.5v-1c0-.831-.669-1.5-1.5-1.5zm-3 3c-.831 0-1.5.669-1.5 1.5v1c0-.831.669-1.5 1.5-1.5h.5v-1zm3.5 5.5v1c0 .277.223.5.5.5h4c.277 0 .5-.223.5-.5v-1c0 .277-.223.5-.5.5h-4c-.277 0-.5-.223-.5-.5zm-3 3v1c0 .277.223.5.5.5h4 2.40625c.053488-.154478.09375-.326875.09375-.5v-.5h-2.5-2-2c-.277 0-.5-.223-.5-.5zm2.5-11.5c-.831 0-1.5.669-1.5 1.5v8c0 .831.669 1.5 1.5 1.5h6c.831 0 1.5-.669 1.5-1.5v-8c0-.831-.669-1.5-1.5-1.5zm1 2h4c.277 0 .5.223.5.5v6c0 .277-.223.5-.5.5h-4c-.277 0-.5-.223-.5-.5v-6c0-.277.223-.5.5-.5zm-4 1c-.831 0-1.5.669-1.5 1.5v8c0 .831.669 1.5 1.5 1.5h6c.831 0 1.5-.669 1.5-1.5v-.5h-2.5-4c-.277 0-.5-.223-.5-.5v-6-2.5z" fill="#bebebe"/></svg>

<?xml version="1.0" encoding="UTF-8" standalone="no"?>
<!-- Created with Inkscape (http://www.inkscape.org/) -->

<svg
   xmlns:dc="http://purl.org/dc/elements/1.1/"
   xmlns:cc="http://creativecommons.org/ns#"
   xmlns:rdf="http://www.w3.org/1999/02/22-rdf-syntax-ns#"
   xmlns:svg="http://www.w3.org/2000/svg"
   xmlns="http://www.w3.org/2000/svg"
   xmlns:xlink="http://www.w3.org/1999/xlink"
   xmlns:sodipodi="http://sodipodi.sourceforge.net/DTD/sodipodi-0.dtd"
   xmlns:inkscape="http://www.inkscape.org/namespaces/inkscape"
   width="16"
   height="16"
   id="svg2"
   sodipodi:version="0.32"
   inkscape:version="0.91 r13725"
   version="1.0"
   sodipodi:docname="edit-copy-symbolic.svg"
   inkscape:output_extension="org.inkscape.output.svg.inkscape"
   inkscape:export-filename="/home/matt/.icons/Sirocco/scalable/mimetypes/text-plain.png"
   inkscape:export-xdpi="90"
   inkscape:export-ydpi="90"
   sodipodi:modified="true"
   style="display:inline">
  <sodipodi:namedview
     id="base"
     pagecolor="#ffffff"
     bordercolor="#666666"
     borderopacity="1.0"
     inkscape:pageopacity="0.0"
     inkscape:pageshadow="2"
     inkscape:zoom="17.473965"
     inkscape:cx="-19.1031"
     inkscape:cy="-0.85336808"
     inkscape:document-units="px"
     inkscape:current-layer="layer1"
     width="128px"
     height="128px"
     inkscape:showpageshadow="false"
     inkscape:window-width="1920"
     inkscape:window-height="1004"
     inkscape:window-x="0"
     inkscape:window-y="25"
     showguides="true"
     inkscape:guide-bbox="true"
     showgrid="true"
     inkscape:window-maximized="1">
    <sodipodi:guide
       id="guide2226"
       position="32.637397,117.99844"
       orientation="horizontal" />
    <sodipodi:guide
       id="guide2230"
       position="110,57.402344"
       orientation="vertical" />
    <sodipodi:guide
       id="guide2232"
       position="33.760911"
       orientation="horizontal" />
    <sodipodi:guide
       id="guide2231"
       position="46.774696"
       orientation="horizontal" />
    <inkscape:grid
       enabled="true"
       visible="true"
       id="grid3231"
       type="xygrid" />
    <sodipodi:guide
       orientation="1,0"
       position="100,67.625"
       id="guide2713" />
  </sodipodi:namedview>
  <defs
     id="defs4">
    <inkscape:perspective
       sodipodi:type="inkscape:persp3d"
       inkscape:vp_x="0 : 11 : 1"
       inkscape:vp_y="0 : 1000 : 0"
       inkscape:vp_z="22 : 11 : 1"
       inkscape:persp3d-origin="11 : 7.3333333 : 1"
       id="perspective19" />
    <linearGradient
       id="StandardGradient"
       gradientTransform="scale(0.9219544,1.0846523)"
       x1="11.998966"
       y1="0.92195445"
       x2="11.998966"
       y2="19.387045"
       gradientUnits="userSpaceOnUse">
      <stop
         style="stop-color:#000000;stop-opacity:0.86274511;"
         offset="0"
         id="stop3283" />
      <stop
         style="stop-color:#000000;stop-opacity:0.47058824;"
         offset="1"
         id="stop2651" />
    </linearGradient>
    <linearGradient
       inkscape:collect="always"
       xlink:href="#StandardGradient"
       id="linearGradient2549"
       gradientUnits="userSpaceOnUse"
       gradientTransform="matrix(0.9247229,0,0,1.0872097,-2.0600562,0.9976422)"
       x1="11.998966"
       y1="0.92195445"
       x2="11.998966"
       y2="17.478098" />
    <linearGradient
       inkscape:collect="always"
       xlink:href="#StandardGradient"
       id="linearGradient2418"
       gradientUnits="userSpaceOnUse"
       gradientTransform="matrix(0.9247229,0,0,1.0872097,-3.0600562,-3.0023583)"
       x1="11.998966"
       y1="0.92195445"
       x2="11.998966"
       y2="17.478098" />
    <linearGradient
       inkscape:collect="always"
       xlink:href="#StandardGradient"
       id="linearGradient2422"
       gradientUnits="userSpaceOnUse"
       gradientTransform="matrix(0.9247229,0,0,1.0872097,-5.0600562,-1.0023583)"
       x1="11.998966"
       y1="0.92195445"
       x2="11.998966"
       y2="17.478098" />
    <inkscape:perspective
       id="perspective3648"
       inkscape:persp3d-origin="0.5 : 0.33333333 : 1"
       inkscape:vp_z="1 : 0.5 : 1"
       inkscape:vp_y="0 : 1000 : 0"
       inkscape:vp_x="0 : 0.5 : 1"
       sodipodi:type="inkscape:persp3d" />
    <linearGradient
       inkscape:collect="always"
       xlink:href="#StandardGradient"
       id="linearGradient3631"
       gradientUnits="userSpaceOnUse"
       gradientTransform="matrix(0.9247229,0,0,1.0872097,-24.060056,-3.0023583)"
       x1="11.998966"
       y1="3.6813121"
       x2="11.998966"
       y2="16.529612" />
    <clipPath
       clipPathUnits="userSpaceOnUse"
       id="clipPath3638">
      <path
         style="fill:#ff00ff;fill-opacity:1;stroke:none;display:inline"
         d="m -20,0 0,16 16,0 0,-16 -16,0 z m 6.5,1 6,0 C -6.669,1 -6,1.669 -6,2.5 l 0,8 c 0,0.831 -0.669,1.5 -1.5,1.5 l -6,0 c -0.831,0 -1.5,-0.669 -1.5,-1.5 l 0,-8 C -15,1.669 -14.331,1 -13.5,1 z m 1,2 C -12.777,3 -13,3.223 -13,3.5 l 0,6 c 0,0.277 0.223,0.5 0.5,0.5 l 4,0 C -8.223,10 -8,9.777 -8,9.5 l 0,-6 C -8,3.223 -8.223,3 -8.5,3 l -4,0 z m -4,1 0.5,0 0,2.5 0,6 c 0,0.277 0.223,0.5 0.5,0.5 l 4,0 2.5,0 0,0.5 c 0,0.831 -0.669,1.5 -1.5,1.5 l -6,0 c -0.831,0 -1.5,-0.669 -1.5,-1.5 l 0,-8 C -18,4.669 -17.331,4 -16.5,4 z"
         id="path3640" />
    </clipPath>
    <linearGradient
       inkscape:collect="always"
       xlink:href="#StandardGradient"
       id="linearGradient5498"
       gradientUnits="userSpaceOnUse"
       gradientTransform="matrix(0.9247229,0,0,1.0872097,-4.0600562,-3.0023583)"
       x1="11.998966"
       y1="3.6813121"
       x2="11.998966"
       y2="16.529612" />
    <linearGradient
       inkscape:collect="always"
       xlink:href="#StandardGradient"
       id="linearGradient5502"
       gradientUnits="userSpaceOnUse"
       gradientTransform="matrix(0.9247229,0,0,1.0872097,-4.0600562,-3.0023583)"
       x1="11.998966"
       y1="3.6813121"
       x2="11.998966"
       y2="16.529612" />
  </defs>
  <metadata
     id="metadata7">
    <rdf:RDF>
      <cc:Work
         rdf:about="">
        <dc:format>image/svg+xml</dc:format>
        <dc:type
           rdf:resource="http://purl.org/dc/dcmitype/StillImage" />
      </cc:Work>
    </rdf:RDF>
  </metadata>
  <g
     style="display:inline"
     inkscape:label="Calque 1"
     id="layer1"
     inkscape:groupmode="layer">
    <path
       id="BevelShadow"
       style="opacity:1;fill:#bebebe;fill-opacity:1;stroke:none;stroke-width:1.00000024;stroke-linecap:round;stroke-linejoin:miter;stroke-miterlimit:4;stroke-dasharray:none;stroke-opacity:1;display:inline"
       d="M 6.5,1 C 5.669,1 5,1.669 5,2.5 l 0,1 C 5,2.669 5.669,2 6.5,2 l 6,0 C 13.331,2 14,2.669 14,3.5 l 0,-1 C 14,1.669 13.331,1 12.5,1 l -6,0 z m -3,3 C 2.669,4 2,4.669 2,5.5 l 0,1 C 2,5.669 2.669,5 3.5,5 L 4,5 4,4 3.5,4 Z m 3.5,5.5 0,1 C 7,10.777 7.223,11 7.5,11 l 4,0 c 0.277,0 0.5,-0.223 0.5,-0.5 l 0,-1 C 12,9.777 11.777,10 11.5,10 l -4,0 C 7.223,10 7,9.777 7,9.5 Z m -3,3 0,1 C 4,13.777 4.223,14 4.5,14 l 4,0 2.40625,0 C 10.959738,13.845522 11,13.673125 11,13.5 l 0,-0.5 -2.5,0 -2,0 -2,0 C 4.223,13 4,12.777 4,12.5 Z M 6.5,1 C 5.669,1 5,1.669 5,2.5 l 0,8 C 5,11.331 5.669,12 6.5,12 l 6,0 c 0.831,0 1.5,-0.669 1.5,-1.5 l 0,-8 C 14,1.669 13.331,1 12.5,1 l -6,0 z m 1,2 4,0 C 11.777,3 12,3.223 12,3.5 l 0,6 C 12,9.777 11.777,10 11.5,10 l -4,0 C 7.223,10 7,9.777 7,9.5 l 0,-6 C 7,3.223 7.223,3 7.5,3 Z m -4,1 C 2.669,4 2,4.669 2,5.5 l 0,8 C 2,14.331 2.669,15 3.5,15 l 6,0 c 0.831,0 1.5,-0.669 1.5,-1.5 l 0,-0.5 -2.5,0 -4,0 C 4.223,13 4,12.777 4,12.5 L 4,6.5 4,4 3.5,4 Z" />
  </g>
</svg>
